svgs/sharp-regular/bed-empty.svg

<svg xmlns="http://www.w3.org/2000/svg" viewBox="0 0 640 512"><!--! Font Awesome Pro 6.6.0 by @fontawesome - https://fontawesome.com License - https://fontawesome.com/license (Commercial License) Copyright 2024 Fonticons, Inc. --><path d="M48 56l0-24L0 32 0 56 0 160l0 48L0 360l0 96 0 24 48 0 0-24 0-72 544 0 0 80 0 24 48 0 0-24 0-104 0-176 0-24-24 0L48 160 48 56zM592 336L48 336l0-128 544 0 0 128z"/></svg>

<svg xmlns="http://www.w3.org/2000/svg" viewBox="0 0 640 512"><!--! Font Awesome Pro 6.5.2 by @fontawesome - https://fontawesome.com License - https://fontawesome.com/license (Commercial License) Copyright 2024 Fonticons, Inc. --><path d="M48 56V32H0V56 160v48V360v96 24H48V456 384H592v80 24h48V464 360 184 160H616 48V56zM592 336H48V208H592V336z"/></svg>
